Obsidian/actions/16s/format-node-smooth.svg

<svg height="16" viewBox="0 0 16 16" width="16" xmlns="http://www.w3.org/2000/svg"><path d="m4 6v2h-1v-1h-3v3h3v-1h1v1h4v-1h4v1h3v-3h-3v1h-4v-2z" fill="#bebebe"/></svg>

<svg xmlns="http://www.w3.org/2000/svg" width="16" height="16" viewBox="0 0 16 16">
 <defs>
  <style id="current-color-scheme" type="text/css">
   .ColorScheme-Text { color:#bebebe; } .ColorScheme-Highlight { color:#4285f4; }
  </style>
 </defs>
 <path style="fill:currentColor" class="ColorScheme-Text" d="M 4 6 L 4 8 L 3 8 L 3 7 L 0 7 L 0 10 L 3 10 L 3 9 L 4 9 L 4 10 L 8 10 L 8 9 L 12 9 L 12 10 L 15 10 L 15 7 L 12 7 L 12 8 L 8 8 L 8 6 L 4 6 z"/>
</svg>
